X: 21723
T: The QUEEN'S TRIUMPH
C: By the late Hugh Gilmour.--Never before published.
R: Reel
B: W. Hamilton "Universal Tune-Book" Vol. 2 Glasgow 1846 p.173 #3
S: http://s3-eu-west-1.amazonaws.com/itma.dl.printmaterial/book_pdfs/hamiltonvol2web.pdf
Z: 2016 John Chambers <jc:trillian.mit.edu>
M: C
L: 1/8
K: A
% - - - - - - - - - - - - - - - - - - - - - - - - -
(c/d/) |\
efec f2e2 | efec dBBd |\
efec f2e2 | fdBe cAA :|\
g |\
a2ag f2eg | afec dBBg |
a2ae f2eg | fdBe cAAg |\
a2ag f2eg | afec dBBg |\
a2af b2ba | gefg a2a |]
% - - - - - - - - - - - - - - - - - - - - - - - - -

%%sep 1 1 500
%%sep 1 1 500

